src/assets/beer.svg

<svg width="64" height="64" viewBox="0 0 64 64" fill="none" xmlns="http://www.w3.org/2000/svg">
<path d="M63.1727 9.57758L54.4227 0.827584C54.0123 0.41712 53.4556 0.186523 52.8751 0.186523C52.2946 0.186523 51.7379 0.41712 51.3274 0.827584C50.917 1.23805 50.6864 1.79476 50.6864 2.37524C50.6864 2.95572 50.917 3.51243 51.3274 3.9229L51.7321 4.32485L36.6466 15.6397L26.1958 17.7315C25.7726 17.8163 25.3837 18.0235 25.0774 18.3276L2.28915 41.1104C1.05853 42.3411 0.367187 44.0102 0.367188 45.7506C0.367187 47.491 1.05853 49.1602 2.28915 50.3909L13.6095 61.7112C14.8402 62.9418 16.5093 63.6331 18.2497 63.6331C19.9901 63.6331 21.6592 62.9418 22.8899 61.7112L45.6727 38.9311C45.9774 38.6253 46.1848 38.2362 46.2688 37.8127L48.3606 27.362L59.6755 12.2764L60.0774 12.6811C60.2807 12.8843 60.5219 13.0456 60.7875 13.1556C61.053 13.2655 61.3377 13.3222 61.6251 13.3222C61.9125 13.3222 62.1971 13.2655 62.4627 13.1556C62.7282 13.0456 62.9695 12.8843 63.1727 12.6811C63.376 12.4779 63.5372 12.2366 63.6472 11.971C63.7572 11.7055 63.8138 11.4209 63.8138 11.1334C63.8138 10.846 63.7572 10.5614 63.6472 10.2959C63.5372 10.0303 63.376 9.78903 63.1727 9.58579V9.57758ZM18.2497 59.2502C17.9627 59.251 17.6783 59.1949 17.4132 59.085C17.148 58.9752 16.9072 58.8139 16.7048 58.6104L5.38993 47.2956C4.98 46.8854 4.74973 46.3292 4.74973 45.7493C4.74973 45.1694 4.98 44.6132 5.38993 44.203L6.93758 42.6553L21.345 57.0627L19.7891 58.6104C19.3806 59.0185 18.8272 59.2485 18.2497 59.2502ZM44.5626 25.1252C44.3663 25.3861 44.2317 25.6881 44.1688 26.0084L42.1098 36.2979L39.7501 38.6577L25.3427 24.2502L27.7024 21.8905L37.9919 19.8315C38.3123 19.7687 38.6142 19.634 38.8751 19.4377L54.8575 7.45024L56.5501 9.14282L44.5626 25.1252Z" fill="#00AACB"/>
</svg>

<svg xmlns="http://www.w3.org/2000/svg" width="64" height="64" fill="none" viewBox="0 0 64 64"><path fill="#00aacb" d="m63.173 9.578-8.75-8.75a2.188 2.188 0 1 0-3.096 3.095l.405.402L36.647 15.64l-10.451 2.092a2.2 2.2 0 0 0-1.119.596L2.29 41.11a6.56 6.56 0 0 0 0 9.28l11.32 11.321a6.56 6.56 0 0 0 9.28 0l22.784-22.78c.304-.306.512-.695.596-1.118l2.092-10.451 11.315-15.086.401.405a2.19 2.19 0 0 0 3.096-3.095zM18.25 59.25a2.17 2.17 0 0 1-1.545-.64L5.39 47.296a2.19 2.19 0 0 1 0-3.093l1.548-1.548 14.407 14.408-1.556 1.547a2.2 2.2 0 0 1-1.54.64m26.313-34.125a2.16 2.16 0 0 0-.394.883l-2.06 10.29-2.359 2.36L25.343 24.25l2.36-2.36 10.289-2.059a2.16 2.16 0 0 0 .883-.393L54.858 7.45l1.692 1.693z"/></svg>
